Otagle3/Assets/ikonySvG/WarstwaTC.svg

<?xml version="1.0" encoding="UTF-8" standalone="no"?>
<svg
   xmlns:osb="http://www.openswatchbook.org/uri/2009/osb"
   xmlns:dc="http://purl.org/dc/elements/1.1/"
   xmlns:cc="http://creativecommons.org/ns#"
   xmlns:rdf="http://www.w3.org/1999/02/22-rdf-syntax-ns#"
   xmlns:svg="http://www.w3.org/2000/svg"
   xmlns="http://www.w3.org/2000/svg"
   id="svg47"
   version="1.1"
   viewBox="0 0 52.758294 52.758296"
   height="199.40143"
   width="199.40143">
  <defs
     id="defs42">
    <pattern
       id="EMFhbasepattern"
       patternUnits="userSpaceOnUse"
       width="6"
       height="6"
       x="0"
       y="0" />
    <marker
       style="overflow:visible"
       id="Arrow1Mend-5-0"
       refX="0"
       refY="0"
       orient="auto">
      <path
         transform="matrix(-0.4,0,0,-0.4,-4,0)"
         style="fill:#000000;fill-opacity:1;fill-rule:evenodd;stroke:#000000;stroke-width:1.00000003pt;stroke-opacity:1"
         d="M 0,0 5,-5 -12.5,0 5,5 Z"
         id="path1146-3-3" />
    </marker>
    <marker
       style="overflow:visible"
       id="Arrow1Mend-5-3"
       refX="0"
       refY="0"
       orient="auto">
      <path
         transform="matrix(-0.4,0,0,-0.4,-4,0)"
         style="fill:#000000;fill-opacity:1;fill-rule:evenodd;stroke:#000000;stroke-width:1.00000003pt;stroke-opacity:1"
         d="M 0,0 5,-5 -12.5,0 5,5 Z"
         id="path1146-3-9" />
    </marker>
    <marker
       orient="auto"
       refY="0"
       refX="0"
       id="Arrow1Mend-5-0-4"
       style="overflow:visible">
      <path
         id="path1146-3-3-8"
         d="M 0,0 5,-5 -12.5,0 5,5 Z"
         style="fill:#ffffff;fill-opacity:1;fill-rule:evenodd;stroke:#ffffff;stroke-width:1.00000003pt;stroke-opacity:1"
         transform="matrix(-0.4,0,0,-0.4,-4,0)" />
    </marker>
    <marker
       orient="auto"
       refY="0"
       refX="0"
       id="Arrow1Mend-5-3-8"
       style="overflow:visible">
      <path
         id="path1146-3-9-5"
         d="M 0,0 5,-5 -12.5,0 5,5 Z"
         style="fill:#ffffff;fill-opacity:1;fill-rule:evenodd;stroke:#ffffff;stroke-width:1.00000003pt;stroke-opacity:1"
         transform="matrix(-0.4,0,0,-0.4,-4,0)" />
    </marker>
    <marker
       style="overflow:visible"
       id="Arrow1Mend"
       refX="0"
       refY="0"
       orient="auto">
      <path
         transform="matrix(-0.4,0,0,-0.4,-4,0)"
         style="fill:#000000;fill-opacity:1;fill-rule:evenodd;stroke:#000000;stroke-width:1.00000003pt;stroke-opacity:1"
         d="M 0,0 5,-5 -12.5,0 5,5 Z"
         id="path1146" />
    </marker>
    <marker
       orient="auto"
       refY="0"
       refX="0"
       id="Arrow1Mend-5"
       style="overflow:visible">
      <path
         id="path1146-3"
         d="M 0,0 5,-5 -12.5,0 5,5 Z"
         style="fill:#ffffff;fill-opacity:1;fill-rule:evenodd;stroke:#ffffff;stroke-width:1.00000003pt;stroke-opacity:1"
         transform="matrix(-0.4,0,0,-0.4,-4,0)" />
    </marker>
    <marker
       style="overflow:visible"
       id="Arrow1Mstart"
       refX="0"
       refY="0"
       orient="auto">
      <path
         transform="matrix(0.4,0,0,0.4,4,0)"
         style="fill:#000000;fill-opacity:1;fill-rule:evenodd;stroke:#000000;stroke-width:1.00000003pt;stroke-opacity:1"
         d="M 0,0 5,-5 -12.5,0 5,5 Z"
         id="path1143" />
    </marker>
    <marker
       orient="auto"
       refY="0"
       refX="0"
       id="Arrow1Mstart-1"
       style="overflow:visible">
      <path
         id="path1143-7"
         d="M 0,0 5,-5 -12.5,0 5,5 Z"
         style="fill:#ffffff;fill-opacity:1;fill-rule:evenodd;stroke:#ffffff;stroke-width:1.00000003pt;stroke-opacity:1"
         transform="matrix(0.4,0,0,0.4,4,0)" />
    </marker>
    <marker
       style="overflow:visible"
       id="Arrow1Lend"
       refX="0"
       refY="0"
       orient="auto">
      <path
         transform="matrix(-0.8,0,0,-0.8,-10,0)"
         style="fill:#000000;fill-opacity:1;fill-rule:evenodd;stroke:#000000;stroke-width:1.00000003pt;stroke-opacity:1"
         d="M 0,0 5,-5 -12.5,0 5,5 Z"
         id="path1140" />
    </marker>
    <marker
       style="overflow:visible"
       id="Arrow1Lstart"
       refX="0"
       refY="0"
       orient="auto">
      <path
         transform="matrix(0.8,0,0,0.8,10,0)"
         style="fill:#000000;fill-opacity:1;fill-rule:evenodd;stroke:#000000;stroke-width:1.00000003pt;stroke-opacity:1"
         d="M 0,0 5,-5 -12.5,0 5,5 Z"
         id="path1137" />
    </marker>
    <marker
       orient="auto"
       refY="0"
       refX="0"
       id="Arrow1Lend-5"
       style="overflow:visible">
      <path
         id="path1140-4"
         d="M 0,0 5,-5 -12.5,0 5,5 Z"
         style="fill:#ffffff;fill-opacity:1;fill-rule:evenodd;stroke:#ffffff;stroke-width:1.00000003pt;stroke-opacity:1"
         transform="matrix(-0.8,0,0,-0.8,-10,0)" />
    </marker>
    <marker
       orient="auto"
       refY="0"
       refX="0"
       id="Arrow1Lstart-93"
       style="overflow:visible">
      <path
         id="path1137-7"
         d="M 0,0 5,-5 -12.5,0 5,5 Z"
         style="fill:#ffffff;fill-opacity:1;fill-rule:evenodd;stroke:#ffffff;stroke-width:1.00000003pt;stroke-opacity:1"
         transform="matrix(0.8,0,0,0.8,10,0)" />
    </marker>
    <linearGradient
       id="linearGradient4460"
       osb:paint="solid">
      <stop
         style="stop-color:#db3b3b;stop-opacity:1;"
         offset="0"
         id="stop4458" />
    </linearGradient>
  </defs>
  <metadata
     id="metadata45">
    <rdf:RDF>
      <cc:Work
         rdf:about="">
        <dc:format>image/svg+xml</dc:format>
        <dc:type
           rdf:resource="http://purl.org/dc/dcmitype/StillImage" />
        <dc:title></dc:title>
      </cc:Work>
    </rdf:RDF>
  </metadata>
  <g
     id="g8556"
     transform="translate(49.836509,-375.23204)">
    <g
       id="g5305">
      <text
         xml:space="preserve"
         style="font-size:6.3499999px;line-height:1.25;font-family:voestalpine;-inkscape-font-specification:voestalpine;text-align:center;letter-spacing:0px;word-spacing:0px;text-anchor:middle;display:inline;stroke-width:0.26458299"
         x="-23.328035"
         y="425.50534"
         id="text858-5-8-2"><tspan
           id="tspan921-9-5"
           x="-23.328035"
           y="425.50534"
           style="font-size:6.3499999px;text-align:center;text-anchor:middle;fill:#ffffff;fill-opacity:1;stroke-width:0.26458299">Rejestr zmian</tspan></text>
      <g
         id="g3953-0"
         transform="translate(-156.49748,405.79246)"
         style="display:inline">
        <path
           style="fill:#ffffff;fill-opacity:1;stroke:none;stroke-width:0;stroke-miterlimit:4;stroke-dasharray:none;stroke-opacity:1"
           d="m 131.72154,-16.34338 h 2.1158 v 2.107756 c 0,0.168943 0.13676,0.305706 0.30571,0.305706 h 2.41346 c 0.16894,0 0.3057,-0.136763 0.3057,-0.305706 v -2.115801 h 2.09972 c 0.16894,0 0.3057,-0.136763 0.3057,-0.305705 v -2.405417 c 0,-0.168942 -0.13676,-0.305705 -0.3057,-0.305705 h -2.11581 v -2.107757 c 0,-0.168942 -0.13676,-0.305705 -0.3057,-0.305705 h -2.41346 c -0.16895,0 -0.30571,0.136763 -0.30571,0.305705 v 2.115802 h -2.09971 c -0.16894,0 -0.3057,0.136762 -0.3057,0.305705 v 2.413462 c 0.008,0.160897 0.13676,0.29766 0.3057,0.29766 z m 0.30571,-2.413462 h 2.10775 c 0.16894,0 0.30571,-0.136763 0.30571,-0.305705 v -2.107757 h 1.81009 v 2.107757 c 0,0.168942 0.13677,0.305705 0.30571,0.305705 h 2.1158 v 1.810096 h -2.12385 c -0.16894,0 -0.3057,0.136763 -0.3057,0.305706 v 2.115801 h -1.8101 v -2.123846 c 0,-0.168943 -0.13676,-0.305706 -0.3057,-0.305706 h -2.1158 v -1.802051 z"
           id="path968-0" />
        <path
           style="fill:#ffffff;fill-opacity:1;stroke:none;stroke-width:0;stroke-miterlimit:4;stroke-dasharray:none;stroke-opacity:1"
           d="m 140.30095,-23.382644 h -16.08974 c -0.16894,0 -0.29766,0.128718 -0.29766,0.297661 V 1.0496339 c 0,0.1689423 0.13676,0.3057052 0.3057,0.3057052 H 140.309 c 0.16894,0 0.3057,-0.1367629 0.3057,-0.3057052 V -23.084983 c -0.008,-0.168943 -0.1448,-0.297661 -0.31375,-0.297661 z M 140.00329,0.75197364 H 124.51691 V -22.779278 h 15.48638 z"
           id="path970-0" />
        <path
           style="fill:#ffffff;fill-opacity:1;stroke:none;stroke-width:0;stroke-miterlimit:4;stroke-dasharray:none;stroke-opacity:1"
           d="m 127.42916,-8.2985078 h 9.65384 c 0.16895,0 0.30571,-0.1367628 0.30571,-0.3057052 0,-0.1689423 -0.13676,-0.3057051 -0.30571,-0.3057051 h -9.65384 c -0.16895,0 -0.30571,0.1367628 -0.30571,0.3057051 0,0.1689424 0.13676,0.3057052 0.30571,0.3057052 z"
           id="path972-0" />
        <path
           style="fill:#ffffff;fill-opacity:1;stroke:none;stroke-width:0;stroke-miterlimit:4;stroke-dasharray:none;stroke-opacity:1"
           d="m 127.42916,-11.516457 h 6.43589 c 0.16895,0 0.30571,-0.136763 0.30571,-0.305705 0,-0.168942 -0.13676,-0.305705 -0.30571,-0.305705 h -6.43589 c -0.16895,0 -0.30571,0.136763 -0.30571,0.305705 0,0.168942 0.13676,0.305705 0.30571,0.305705 z"
           id="path974-1" />
        <path
           style="fill:#ffffff;fill-opacity:1;stroke:none;stroke-width:0;stroke-miterlimit:4;stroke-dasharray:none;stroke-opacity:1"
           d="m 127.42916,-5.0805588 h 9.65384 c 0.16895,0 0.30571,-0.1367629 0.30571,-0.3057052 0,-0.1689423 -0.13676,-0.3057052 -0.30571,-0.3057052 h -9.65384 c -0.16895,0 -0.30571,0.1367629 -0.30571,0.3057052 0,0.1689423 0.13676,0.3057052 0.30571,0.3057052 z"
           id="path976-0" />
        <path
           style="fill:#ffffff;fill-opacity:1;stroke:none;stroke-width:0;stroke-miterlimit:4;stroke-dasharray:none;stroke-opacity:1"
           d="m 127.42916,-1.8626099 h 9.65384 c 0.16895,0 0.30571,-0.1367628 0.30571,-0.3057051 0,-0.1689424 -0.13676,-0.3057052 -0.30571,-0.3057052 h -9.65384 c -0.16895,0 -0.30571,0.1367628 -0.30571,0.3057052 0,0.1689423 0.13676,0.3057051 0.30571,0.3057051 z"
           id="path978-0" />
      </g>
      <g
         id="g1645"
         style="display:inline"
         transform="translate(-1149.3432,403.31542)">
        <rect
           style="fill:#0082b4;fill-opacity:1;stroke:#000000;stroke-width:0.520679;stroke-linecap:round;stroke-miterlimit:4;stroke-dasharray:none;paint-order:fill markers stroke"
           id="rect835-2-0-2-8-1-5-6-8-9-7-3-0-5-5-1-5-4-5-2-4"
           width="52.395985"
           height="52.395985"
           x="1099.8995"
           y="-27.584515" />
        <g
           transform="matrix(1.1466314,0,0,1.1466314,1112.3388,-24.290627)"
           id="g2187"
           style="fill:#ffffff;fill-opacity:1">
          <g
             style="fill:#ffffff;fill-opacity:1"
             id="g2168">
            <path
               style="fill:#ffffff;fill-opacity:1"
               d="M 23.413,23.801 H 0.583 c -0.276,0 -0.5,-0.224 -0.5,-0.5 V 0.702 c 0,-0.276 0.224,-0.5 0.5,-0.5 L 7.238,0.199 c 3.426,0 6.853,0.006 10.278,0.031 0.59,0.004 1.287,0.286 1.733,0.703 1.441,1.343 2.831,2.771 4.001,3.989 0.31,0.323 0.642,0.856 0.645,1.386 0.025,4.672 0.021,9.343 0.019,14.015 l -0.002,2.978 c 0.001,0.276 -0.223,0.5 -0.499,0.5 z m -22.33,-1 h 21.829 v -0.08 c 0,-0.005 0,-0.01 0,-0.015 l 0.002,-2.384 C 22.917,15.653 22.921,10.983 22.895,6.314 22.894,6.134 22.734,5.828 22.53,5.616 21.369,4.406 19.991,2.991 18.568,1.664 18.305,1.419 17.85,1.232 17.51,1.23 14.086,1.205 10.662,1.199 7.239,1.199 L 1.083,1.202 Z M 19.665,21.795 H 4.259 c -0.276,0 -0.5,-0.224 -0.5,-0.5 v -9.858 c 0,-0.276 0.224,-0.5 0.5,-0.5 h 15.406 c 0.276,0 0.5,0.224 0.5,0.5 v 9.858 c 0,0.276 -0.223,0.5 -0.5,0.5 z m -14.906,-1 H 19.165 V 11.937 H 4.759 Z M 17.36,9.345 H 6.547 c -0.276,0 -0.5,-0.224 -0.5,-0.5 V 2.063 c 0,-0.276 0.224,-0.5 0.5,-0.5 H 17.36 c 0.276,0 0.5,0.224 0.5,0.5 v 6.782 c 0,0.276 -0.224,0.5 -0.5,0.5 z m -10.313,-1 H 16.86 V 2.563 H 7.047 Z"
               id="path2152" />
            <path
               style="fill:#ffffff;fill-opacity:1"
               d="m 15.326,7.464 h -2.885 c -0.276,0 -0.5,-0.224 -0.5,-0.5 V 3.321 c 0,-0.276 0.224,-0.5 0.5,-0.5 h 2.885 c 0.276,0 0.5,0.224 0.5,0.5 v 3.643 c 0,0.276 -0.224,0.5 -0.5,0.5 z m -2.385,-1 h 1.885 V 3.821 h -1.885 z"
               id="path2154" />
            <g
               style="fill:#ffffff;fill-opacity:1"
               id="g2166">
              <path
                 style="fill:#ffffff;fill-opacity:1"
                 d="M 17.511,13.742 H 6.497 c -0.276,0 -0.5,-0.224 -0.5,-0.5 0,-0.276 0.224,-0.5 0.5,-0.5 h 11.014 c 0.276,0 0.5,0.224 0.5,0.5 0,0.276 -0.223,0.5 -0.5,0.5 z"
                 id="path2156" />
              <path
                 style="fill:#ffffff;fill-opacity:1"
                 d="m 6.497,15.326 c -0.276,0 -0.5,-0.224 -0.5,-0.5 0,-0.275 0.224,-0.5 0.5,-0.5 l 11.014,-0.008 v 0 c 0.276,0 0.5,0.224 0.5,0.5 0,0.275 -0.224,0.5 -0.5,0.5 z"
                 id="path2158" />
              <path
                 style="fill:#ffffff;fill-opacity:1"
                 d="m 17.511,16.92 c -10e-4,0 -10e-4,0 -0.002,0 L 6.496,16.884 C 6.221,16.883 5.997,16.658 5.998,16.382 c 10e-4,-0.275 0.225,-0.498 0.5,-0.498 10e-4,0 10e-4,0 0.002,0 l 11.014,0.036 c 0.275,10e-4 0.499,0.226 0.498,0.502 -0.002,0.275 -0.225,0.498 -0.501,0.498 z"
                 id="path2160" />
              <path
                 style="fill:#ffffff;fill-opacity:1"
                 d="m 17.511,18.485 v 0 L 6.497,18.479 c -0.276,0 -0.5,-0.225 -0.5,-0.5 0,-0.276 0.224,-0.5 0.5,-0.5 v 0 l 11.014,0.007 c 0.276,0 0.5,0.225 0.5,0.5 0,0.276 -0.223,0.499 -0.5,0.499 z"
                 id="path2162" />
              <path
                 style="fill:#ffffff;fill-opacity:1"
                 d="M 17.511,20.062 H 6.497 c -0.276,0 -0.5,-0.224 -0.5,-0.5 0,-0.276 0.224,-0.5 0.5,-0.5 h 11.014 c 0.276,0 0.5,0.224 0.5,0.5 0,0.276 -0.223,0.5 -0.5,0.5 z"
                 id="path2164" />
            </g>
          </g>
        </g>
        <text
           id="text858-5-83-73-7-0-7-0-7-9-9"
           y="14.330747"
           x="1126.0963"
           style="font-size:8.46667004px;line-height:1.04999995;font-family:voestalpine;-inkscape-font-specification:voestalpine;text-align:center;letter-spacing:0px;word-spacing:0px;text-anchor:middle;stroke-width:0.26458299"
           xml:space="preserve"><tspan
             style="font-size:8.46667004px;text-align:center;text-anchor:middle;fill:#ffffff;fill-opacity:1;stroke-width:0.26458299"
             y="14.330747"
             x="1127.1133"
             id="tspan2108-9">Warstwa </tspan><tspan
             style="font-size:6.3499999px;text-align:center;text-anchor:middle;fill:#ffffff;fill-opacity:1;stroke-width:0.26458299"
             y="23.220749"
             x="1126.0963"
             id="tspan2533-7">Total Commander</tspan></text>
      </g>
    </g>
  </g>
</svg>

<svg id="SVGRoot" width="206px" height="206px" version="1.1" viewBox="0 0 206 206" xmlns="http://www.w3.org/2000/svg">
 <g transform="matrix(3.7795 0 0 3.7795 -1795.2 2502.6)">
  <flowRoot fill="black" font-family="sans-serif" font-size="40px" letter-spacing="0px" word-spacing="0px" style="line-height:1.25" xml:space="preserve"><flowRegion><rect x="-392.69" y="-63.57" width="758.02" height="397.52"/></flowRegion><flowPara/></flowRoot>
  <flowRoot fill="black" font-family="sans-serif" font-size="40px" letter-spacing="0px" word-spacing="0px" style="line-height:1.25" xml:space="preserve"><flowRegion><rect x="-251.87" y="-84.492" width="624.44" height="455.45"/></flowRegion><flowPara/></flowRoot>
  <flowRoot fill="black" font-family="sans-serif" font-size="40px" letter-spacing="0px" word-spacing="0px" style="line-height:1.25" xml:space="preserve"><flowRegion><rect x="-202.78" y="-50.695" width="473.96" height="281.64"/></flowRegion><flowPara/></flowRoot>
  <flowRoot fill="black" font-family="sans-serif" font-size="40px" letter-spacing="0px" word-spacing="0px" style="line-height:1.25" xml:space="preserve"><flowRegion><rect x="-86.906" y="-78.859" width="516.61" height="410.39"/></flowRegion><flowPara/></flowRoot>
  <flowRoot fill="black" font-family="sans-serif" font-size="40px" letter-spacing="0px" word-spacing="0px" style="line-height:1.25" xml:space="preserve"><flowRegion><rect x="-81.273" y="-32.188" width="309" height="322.68"/></flowRegion><flowPara/></flowRoot>
  <flowRoot fill="black" font-family="sans-serif" font-size="40px" letter-spacing="0px" word-spacing="0px" style="line-height:1.25" xml:space="preserve"><flowRegion><rect x="-90.93" y="-68.398" width="392.69" height="252.67"/></flowRegion><flowPara/></flowRoot>
  <g transform="translate(675.17 -.21291)">
   <flowRoot fill="black" font-family="sans-serif" font-size="40px" letter-spacing="0px" word-spacing="0px" style="line-height:1.25" xml:space="preserve"><flowRegion><rect x="-100.59" y="-53.109" width="462.7" height="369.35"/></flowRegion><flowPara/></flowRoot>
   <g transform="translate(57.194 .21291)">
    <flowRoot fill="black" font-family="sans-serif" font-size="40px" letter-spacing="0px" word-spacing="0px" style="line-height:1.25" xml:space="preserve"><flowRegion><rect x="-329.12" y="-12.07" width="696.05" height="259.91"/></flowRegion><flowPara/></flowRoot>
    <g transform="translate(-1495.1 -629.38)">
     <flowRoot fill="black" font-family="sans-serif" font-size="40px" letter-spacing="0px" word-spacing="0px" style="line-height:1.25" xml:space="preserve"><flowRegion><rect x="-306.59" y="-111.05" width="206" height="51.5"/></flowRegion><flowPara/></flowRoot>
     <flowRoot fill="black" font-family="sans-serif" font-size="40px" letter-spacing="0px" word-spacing="0px" style="line-height:1.25" xml:space="preserve"><flowRegion><rect x="-70.812" y="-36.211" width="362.91" height="283.25"/></flowRegion><flowPara/></flowRoot>
     <g transform="translate(538.4 -400.97)">
      <flowRoot fill="black" font-family="sans-serif" font-size="40px" letter-spacing="0px" word-spacing="0px" style="line-height:1.25" xml:space="preserve"><flowRegion><rect x="-138.41" y="-65.18" width="448.21" height="363.72"/></flowRegion><flowPara/></flowRoot>
      <flowRoot fill="black" font-family="sans-serif" font-size="40px" letter-spacing="0px" word-spacing="0px" style="line-height:1.25" xml:space="preserve"><flowRegion><rect x="-67.578" y="-8.4531" width="327.73" height="260.94"/></flowRegion><flowPara/></flowRoot>
      <g transform="translate(-380.28 455.78)">
       <flowRoot fill="black" font-family="sans-serif" font-size="40px" letter-spacing="0px" word-spacing="0px" style="line-height:1.25" xml:space="preserve"><flowRegion><rect x="-5.8594" y="-7.2813" width="339.45" height="326.95"/></flowRegion><flowPara/></flowRoot>
       <g transform="translate(-19.05 -58.755)">
        <rect x="1099.9" y="-27.585" width="52.396" height="52.396" fill="#0082b4" stroke="#000" stroke-linecap="round" stroke-width=".52068" style="paint-order:fill markers stroke"/>
        <g transform="matrix(1.1466 0 0 1.1466 1112.3 -24.291)" fill="#fff">
         <g fill="#fff">
          <path d="m23.413 23.801h-22.83c-.276 0-.5-.224-.5-.5v-22.599c0-.276.224-.5.5-.5l6.655-.003c3.426 0 6.853.006 10.278.031.59.004 1.287.286 1.733.703 1.441 1.343 2.831 2.771 4.001 3.989.31.323.642.856.645 1.386.025 4.672.021 9.343.019 14.015l-.002 2.978c.001.276-.223.5-.499.5zm-22.33-1h21.829v-.08-.015l.002-2.384c.003-4.669.007-9.339-.019-14.008-.001-.18-.161-.486-.365-.698-1.161-1.21-2.539-2.625-3.962-3.952-.263-.245-.718-.432-1.058-.434-3.424-.025-6.848-.031-10.271-.031l-6.156.003zm18.582-1.006h-15.406c-.276 0-.5-.224-.5-.5v-9.858c0-.276.224-.5.5-.5h15.406c.276 0 .5.224.5.5v9.858c0 .276-.223.5-.5.5zm-14.906-1h14.406v-8.858h-14.406zm12.601-11.45h-10.813c-.276 0-.5-.224-.5-.5v-6.782c0-.276.224-.5.5-.5h10.813c.276 0 .5.224.5.5v6.782c0 .276-.224.5-.5.5zm-10.313-1h9.813v-5.782h-9.813z"/>
          <path d="m15.326 7.464h-2.885c-.276 0-.5-.224-.5-.5v-3.643c0-.276.224-.5.5-.5h2.885c.276 0 .5.224.5.5v3.643c0 .276-.224.5-.5.5zm-2.385-1h1.885v-2.643h-1.885z"/>
          <path d="m17.511 13.742h-11.014c-.276 0-.5-.224-.5-.5s.224-.5.5-.5h11.014c.276 0 .5.224.5.5s-.223.5-.5.5z"/>
          <path d="m6.497 15.326c-.276 0-.5-.224-.5-.5 0-.275.224-.5.5-.5l11.014-.008c.276 0 .5.224.5.5 0 .275-.224.5-.5.5z"/>
          <path d="m17.511 16.92h-.002l-11.013-.036c-.275-.001-.499-.226-.498-.502.001-.275.225-.498.5-.498h.002l11.014.036c.275.001.499.226.498.502-.002.275-.225.498-.501.498z"/>
          <path d="m17.511 18.485-11.014-.006c-.276 0-.5-.225-.5-.5 0-.276.224-.5.5-.5l11.014.007c.276 0 .5.225.5.5 0 .276-.223.499-.5.499z"/>
          <path d="m17.511 20.062h-11.014c-.276 0-.5-.224-.5-.5s.224-.5.5-.5h11.014c.276 0 .5.224.5.5s-.223.5-.5.5z"/>
         </g>
        </g>
        <text x="1126.0963" y="12.493834" fill="#ffffff" font-family="sans-serif" font-size="4.9389px" letter-spacing="0px" stroke-width=".26458" text-align="center" text-anchor="middle" word-spacing="0px" style="line-height:1.04999995" xml:space="preserve"><tspan x="1126.9645" y="12.493834" text-align="center">Warstwa </tspan><tspan x="1126.0963" y="21.383835" text-align="center">Total Commander</tspan></text>
       </g>
      </g>
     </g>
    </g>
   </g>
  </g>
 </g>
</svg>
